dist/assets/images/icons/arrow-right.svg

<svg width="18" height="10" viewBox="0 0 18 10" fill="none" xmlns="http://www.w3.org/2000/svg">
<path d="M12.9982 0.892548L12.8935 0.7906L12.7889 0.892552L12.6487 1.02908L12.5384 1.13653L12.6487 1.24398L16.2516 4.75344H1H0.85V4.90344V5.09656V5.24656H1H16.2512L12.6487 8.75602L12.5384 8.86347L12.6487 8.97091L12.7889 9.10745L12.8935 9.2094L12.9982 9.10745L17.1047 5.10725L17.215 4.9998L17.1047 4.89236L12.9982 0.892548Z" fill="white" stroke="white" stroke-width="0.3"/>
</svg>

<svg width="18" height="10" fill="none" xmlns="http://www.w3.org/2000/svg"><path d="M12.998.893L12.894.79l-.105.102-.14.136-.11.108.11.107 3.603 3.51H.85v.493h15.401l-3.601 3.51-.11.107.11.108.14.136.104.102.105-.102 4.107-4 .11-.107-.11-.108-4.107-4z" fill="#fff" stroke="#fff" stroke-width=".3"/></svg>
